X:1
T:Title
%%score { ( 1 2 5 ) | ( 3 4 6 ) }
L:1/8
Q:1/4=108
M:6/4
K:Db
V:1 treble nm="Grand Piano"
V:2 treble 
V:5 treble 
V:3 bass 
V:4 bass 
V:6 bass 
V:1
 z2 A2 A2 z2 A2 A2 | z2 F2 F2 z2 F2 F2 | [A,DF]2 E2 D2 [A,CE]2 F2 G2 | z2 D2 A2 z2 G2 G2 | %4
 z2 A2 A2 z2 =A2 A2 | z2 G2 G2 z2 F2 F2 | [F,F]2 [DF]2 [DF]2 [=G,B,DF]2 E2 D2 | E6 A6 | %8
 F2 F2 F2 F2 F2 F2 | .G6 G6 | =G2 G2 G2 G2 G2 G2 | .A6 A6 | A2 A2 A2 A2 =G2 A2 | .c6 z6 | e6 e6 | %15
[M:15/8] .e6 z3 z6 |[M:6/4] z2 A2 A2 z2 A2 A2 | [Ee]2 [Ad]2 [Ac]2 [B,B]2 [FA]2 [DF]2 | %18
 z2 C2 C2[K:bass] z2 _C2 C2 | z2 C2 C2 z2[K:treble] C2 C2 | [Ee]6 [=D=d]6 | %21
 [Ff]2 [Ae]2 [Ac]2 [B,B]2 [GA]2 [Ac]2 | z2 F2 F2 z2 _C2 C2 | %23
 [A,A]2 [A,A]2- [A,-GAB]2 [A,-CEGAc]2 [A,-cf]2 [A,ce]2 | [Dd]2 [Ac]2 [Ad]2 [Dd]2 [_ce]2 [cd]2 | %25
 z2 B2 B2 z2 A2 A2 | [Ee]2 [B=d]2 [Be]2 [Ee]2 [_df]2 [de]2 | %27
 e2- [EBe-]2 [Ace-]2 [G,A,e-]2 [Ade]2 [Ge]2 | [Ff]2 [F_f]2 [F=f]2 [Gc]2 [Gd]2 [Ge]2 | %29
 [Ad]2 [Ac]2 [Ad]2 [A=da]4 [eg]2 | [df]6 [ce]6 | [Fd]2 [df]2 [fa]2 [fad']6 |] %32
V:2
 [Dd]6 [Cc]6 | [B,B]6 [A,A]6 | x12 | .F6 [A,A]6 | [Dd]6 [Cc]6 | [B,B]6 [A,A]6 | x12 | %7
 z2 C2 C2 z2 _F2 F2 | x12 | z2 E2 G2 z2 E2 E2 | x12 | z2 F2 A2 z2 F2 F2 | x12 | %13
 z2 A2 c2 c2 _c2 =c2 | z2 [E=GB]2 [EGB]2 z2 [EG_c]2 [EGc]2 |[M:15/8] z2 c-c c2 [CGA]3- [CGA]6 | %16
[M:6/4] [Dd]6 [Cc]6 | x12 | [G,G]6[K:bass] [F,F]6 | [G,G]12[K:treble] | z2 A2 A2 z2 A2 A2 | x12 | %22
 [B,B]6 [F,F]6 | z2 .[CG]4 z6 | x12 | [Dd]6 [B,B]6 | x12 | .[EA]6 z6 | x12 | x12 | x12 | x12 |] %32
V:3
 z2[K:treble] F2 F2[K:bass] z2[K:treble] F2 F2 | z2 D2 D2 z2 D2 D2 | %2
 z2 [G,A,]2 [F,A,]2 z2 [A,D]2 E2 | z2 A,2 [A,DF]2 z2 [CE]2 [CE]2 | %4
 z2[K:treble] F2 F2[K:bass] z2[K:treble] [EG]2 [EG]2 | z2 D2 D2 z2 D2 D2 | %6
 z2 [F,B,]2 [F,B,]2 z2 [=G,B,D]2 [G,B,]2 | z2 A,2 A,2 z2 [A,C]2 [A,C]2 | %8
 z2 [A,D]2 [A,D]2 z2 [B,=D]2 [B,D]2 | z2 B,2 [B,E]2 z2 B,2 B,2 | %10
 z2 [B,C]2 [B,C]2 z2 [B,C_F]2 [B,CF]2 | z2[K:treble] [A,C]2 [A,CF]2[K:bass] z2 [A,C]2 [A,C]2 | %12
 z2 [A,B,=D]2 [A,B,D]2 z2 [A,B,D]2 [A,B,D]2 | %13
 z2[K:treble] [CE]2 [CEA]2[K:bass] z2[K:treble] [_CEA]2 [=CEA]2 | %14
 z2 [E,=G,D]2 [E,G,D]2 z2 [E,G,D]2 [E,G,D]2 | %15
[M:15/8] z2[K:treble] [A,CEG]-[A,CEG] [A,CEG]2[K:bass] [A,,A,]3- [A,,A,]6 | %16
[M:6/4] z2[K:treble] F2 F2[K:bass] z2[K:treble] F2 F2 | %17
 z2[K:treble] [DF]2 [CF]2[K:bass] z2 [A,D]2 [F,A,]2 | z2 A,2 A,2 z2 A,2 A,2 | %19
 z2 A,2 A,2 z2 A,2 A,2 | z2[K:treble] G2 G2[K:bass] z2[K:treble] G2 G2 | %21
 z2[K:treble] [EG]2 [CG]2[K:bass] z2 [A,C]2 [CG]2 | z2 D2 D2 z2 A,2 A,2 | %23
 z4 [B,D]2 z2[K:treble] [FA]2 [EGA]2 | z2[K:treble] [CF]2 [DF]2[K:bass] z2[K:treble] [EA]2 [DA]2 | %25
 z2[K:treble] G2 G2[K:bass] z2 =D2 D2 | %26
 z2[K:treble] [D=G]2 [EG]2[K:bass] z2[K:treble] [FG]2 [EB]2 | z4 [=G,D]2 z6 | %28
 [D,A,]2 [D,A,]2 [D,A,]2 [E,A,]2 [E,B,]2 [A,C]2 | [F,D]2 [F,D]2 [F,D]2 [F,_C]4[K:treble] [G,B,G]2 | %30
 [A,F]6 [A,EG]6 | z2[K:treble] F2- [Fd]2- [Fd]6 |] %32
V:4
 [D,,D,]6[K:treble][K:bass] [A,,,A,,]6[K:treble] | [D,,D,]6 [A,,,A,,]6 | [D,,D,]6 [A,,,A,,]6 | %3
 [D,,D,]6 [E,,E,]6 | [D,,D,]6[K:treble][K:bass] [F,,F,]6[K:treble] | [G,,G,]6 [D,,D,]6 | %6
 [B,,,B,,]6 [E,,E,]6 | [A,,,A,,]6 [A,,,A,,]6 | [D,,D,]6 [B,,,B,,]6 | [E,,E,]6 [E,,E,]6 | %10
 [_F,,_F,]6 [C,,C,]6 | [F,,F,]6[K:treble][K:bass] [F,,F,]6 | [B,,,B,,]6 [B,,,B,,]6 | %13
 [E,,E,]6[K:treble][K:bass] [E,,E,]6[K:treble] | E,,6 E,,6 |[M:15/8] A,,6[K:treble][K:bass] z3 z6 | %16
[M:6/4] [D,,D,]6[K:treble][K:bass] [A,,,A,,]6[K:treble] | [D,,D,]6[K:treble][K:bass] [A,,,A,,]6 | %18
 [E,,E,]6 [=D,,=D,]6 | [E,,E,]6 A,,,6 | [C,,C,]6[K:treble][K:bass] [A,,,A,,]6[K:treble] | %21
 [C,,C,]6[K:treble][K:bass] [A,,,A,,]6 | [D,,D,]6 [=D,,=D,]6 | [E,,E,]6 [A,,,A,,]6[K:treble] | %24
 [D,,D,]6[K:treble][K:bass] [F,,F,]6[K:treble] | [G,,G,]6[K:treble][K:bass] [F,,F,]6 | %26
 [E,,E,]6[K:treble][K:bass] [=G,,=G,]6[K:treble] | [A,,A,]2 [A,C]2 E2- E2- [F,A,DE-]2 [E,A,CE]2 | %28
 x12 | x10[K:treble] x2 | x12 | z2[K:treble] A2 A2 z6 |] %32
V:5
 x12 | x12 | x12 | x12 | x12 | x12 | x12 | x12 | x12 | x12 | x12 | x12 | x12 | x12 | x12 | %15
[M:15/8] x15 |[M:6/4] x12 | x12 | x6[K:bass] x6 | z6 A,,6[K:treble] | x12 | x12 | x12 | x12 | x12 | %25
 x12 | x12 | x12 | x12 | x12 | x12 | x12 |] %32
V:6
 x2[K:treble] x4[K:bass] x2[K:treble] x4 | x12 | x12 | x12 | %4
 x2[K:treble] x4[K:bass] x2[K:treble] x4 | x12 | x12 | x12 | x12 | x12 | x12 | %11
 x2[K:treble] x4[K:bass] x6 | x12 | x2[K:treble] x4[K:bass] x2[K:treble] x4 | x12 | %15
[M:15/8] x2[K:treble] x4[K:bass] x9 |[M:6/4] x2[K:treble] x4[K:bass] x2[K:treble] x4 | %17
 x2[K:treble] x4[K:bass] x6 | x12 | x12 | x2[K:treble] x4[K:bass] x2[K:treble] x4 | %21
 x2[K:treble] x4[K:bass] x6 | x12 | x8[K:treble] x4 | x2[K:treble] x4[K:bass] x2[K:treble] x4 | %25
 x2[K:treble] x4[K:bass] x6 | x2[K:treble] x4[K:bass] x2[K:treble] x4 | x12 | x12 | %29
 x10[K:treble] x2 | x12 | [D,D]12[K:treble] |] %32

